svg/transport/rudder_line.svg

<?xml version="1.0" encoding="UTF-8"?>
<svg width="24px" height="24px" viewBox="0 0 24 24" version="1.1" xmlns="http://www.w3.org/2000/svg" xmlns:xlink="http://www.w3.org/1999/xlink">
    <title>rudder_line</title>
    <g id="Icon" stroke="none" stroke-width="1" fill="none" fill-rule="evenodd">
        <g id="Transport" transform="translate(-912.000000, -192.000000)">
            <g id="rudder_line" transform="translate(912.000000, 192.000000)">
                <path d="M24,0 L24,24 L0,24 L0,0 L24,0 Z M12.5935,23.2578 L12.5819,23.2595 L12.5109,23.295 L12.4919,23.2987 L12.4767,23.295 L12.4057,23.2595 C12.3958,23.2564 12.387,23.259 12.3821,23.2649 L12.378,23.2758 L12.3609,23.7031 L12.3659,23.7235 L12.3769,23.7357 L12.4805,23.8097 L12.4953,23.8136 L12.5071,23.8097 L12.6107,23.7357 L12.6233,23.7197 L12.6267,23.7031 L12.6096,23.2758 C12.6076,23.2657 12.601,23.2593 12.5935,23.2578 Z M12.8584,23.1453 L12.8445,23.1473 L12.6598,23.2397 L12.6499,23.2499 L12.6472,23.2611 L12.6651,23.6906 L12.6699,23.7034 L12.6784,23.7105 L12.8793,23.8032 C12.8914,23.8069 12.9022,23.803 12.9078,23.7952 L12.9118,23.7812 L12.8777,23.1665 C12.8753,23.1546 12.8674,23.147 12.8584,23.1453 Z M12.143,23.1473 C12.1332,23.1424 12.1222,23.1453 12.1156,23.1526 L12.1099,23.1665 L12.0758,23.7812 C12.0751,23.7927 12.0828,23.8019 12.0926,23.8046 L12.1083,23.8032 L12.3092,23.7105 L12.3186,23.7024 L12.3225,23.6906 L12.3404,23.2611 L12.3372,23.2485 L12.3278,23.2397 L12.143,23.1473 Z" id="MingCute" fill-rule="nonzero"></path>
                <path d="M13,3 C13,2.44772 12.5523,2 12,2 C11.4477,2 11,2.44772 11,3 L11,4.06189 C9.53927,4.24404 8.20084,4.82001 7.0943,5.68018 L6.34324,4.92912 C5.95272,4.5386 5.31955,4.5386 4.92903,4.92912 C4.53851,5.31965 4.53851,5.95281 4.92903,6.34334 L5.6801,7.09441 C4.81997,8.20092 4.24404,9.53931 4.06189,11 L3,11 C2.44772,11 2,11.4477 2,12 C2,12.5523 2.44772,13 3,13 L4.06189,13 C4.24404,14.4607 4.82001,15.7992 5.68018,16.9057 L4.92888,17.657 C4.53836,18.0475 4.53836,18.6807 4.92888,19.0712 C5.3194,19.4617 5.95257,19.4617 6.34309,19.0712 L7.09441,18.3199 C8.20092,19.18 9.53931,19.756 11,19.9381 L11,21 C11,21.5523 11.4477,22 12,22 C12.5523,22 13,21.5523 13,21 L13,19.9381 C14.4607,19.756 15.7991,19.18 16.9056,18.3199 L17.657,19.0713 C18.0475,19.4618 18.6806,19.4618 19.0712,19.0713 C19.4617,18.6807 19.4617,18.0476 19.0712,17.657 L18.3198,16.9057 C19.18,15.7992 19.756,14.4607 19.9381,13 L21,13 C21.5523,13 22,12.5523 22,12 C22,11.4477 21.5523,11 21,11 L19.9381,11 C19.756,9.53931 19.18,8.20092 18.3199,7.09441 L19.071,6.34329 C19.4615,5.95277 19.4615,5.3196 19.071,4.92908 C18.6805,4.53855 18.0473,4.53855 17.6568,4.92908 L16.9057,5.68018 C15.7992,4.82001 14.4607,4.24404 13,4.06189 L13,3 Z M15.4766,7.10929 C14.7536,6.59445 13.9117,6.23591 13,6.08296 L13,8.12602 C13.367,8.22049 13.7137,8.36575 14.032,8.55385 L15.4766,7.10929 Z M13.4044,10.5761 C13.4077,10.5794 13.4109,10.5827 13.4142,10.5859 C13.4174,10.5892 13.4207,10.5924 13.424,10.5956 C13.7802,10.9567 14,11.4527 14,12 C14,13.1046 13.1046,14 12,14 C10.8954,14 10,13.1046 10,12 C10,11.4537 10.219,10.9586 10.574,10.5976 L10.5859,10.586 L10.5976,10.5741 C10.9585,10.219 11.4537,10 12,10 C12.5473,10 13.0433,10.2199 13.4044,10.5761 Z M15.4462,9.96809 L16.8908,8.52352 C17.4056,9.24644 17.7641,10.0884 17.917,11 L15.874,11 C15.7795,10.633 15.6343,10.2864 15.4462,9.96809 Z M8.52352,16.8908 C9.24644,17.4056 10.0884,17.7641 11,17.917 L11,15.874 C10.633,15.7795 10.2864,15.6343 9.96809,15.4462 L8.52352,16.8908 Z M8.55385,14.032 C8.36575,13.7137 8.22049,13.367 8.12602,13 L6.08296,13 C6.23591,13.9117 6.59446,14.7536 7.10929,15.4766 L8.55385,14.032 Z M6.08296,11 L8.12602,11 C8.22048,10.633 8.36571,10.2864 8.55378,9.96809 L7.10921,8.52352 C6.59442,9.24644 6.2359,10.0884 6.08296,11 Z M17.917,13 L15.874,13 C15.7795,13.367 15.6343,13.7137 15.4461,14.032 L16.8907,15.4766 C17.4055,14.7536 17.7641,13.9117 17.917,13 Z M14.0319,15.4462 C13.7136,15.6343 13.367,15.7795 13,15.874 L13,17.917 C13.9116,17.7641 14.7536,17.4056 15.4765,16.8908 L14.0319,15.4462 Z M9.96797,8.55385 L8.52341,7.10929 C9.24636,6.59445 10.0883,6.23591 11,6.08296 L11,8.12602 C10.633,8.22049 10.2863,8.36575 9.96797,8.55385 Z" id="形状" fill="#09244B"></path>
            </g>
        </g>
    </g>
</svg>

<svg xmlns="http://www.w3.org/2000/svg" width="24" height="24"><g fill="none" fill-rule="evenodd"><path d="M24 0v24H0V0h24ZM12.594 23.258l-.012.002-.071.035-.02.004-.014-.004-.071-.036c-.01-.003-.019 0-.024.006l-.004.01-.017.428.005.02.01.013.104.074.015.004.012-.004.104-.074.012-.016.004-.017-.017-.427c-.002-.01-.009-.017-.016-.018Zm.264-.113-.014.002-.184.093-.01.01-.003.011.018.43.005.012.008.008.201.092c.012.004.023 0 .029-.008l.004-.014-.034-.614c-.003-.012-.01-.02-.02-.022Zm-.715.002a.023.023 0 0 0-.027.006l-.006.014-.034.614c0 .012.007.02.017.024l.015-.002.201-.093.01-.008.003-.011.018-.43-.003-.012-.01-.01-.184-.092Z"/><path fill="#09244B" d="M13 3a1 1 0 1 0-2 0v1.062A7.96 7.96 0 0 0 7.094 5.68l-.75-.75a1 1 0 0 0-1.415 1.413l.751.751A7.96 7.96 0 0 0 4.062 11H3a1 1 0 1 0 0 2h1.062a7.96 7.96 0 0 0 1.618 3.906l-.751.751a1 1 0 1 0 1.414 1.414l.751-.751A7.96 7.96 0 0 0 11 19.938V21a1 1 0 1 0 2 0v-1.062a7.96 7.96 0 0 0 3.906-1.618l.751.751a1 1 0 0 0 1.414-1.414l-.751-.751A7.96 7.96 0 0 0 19.938 13H21a1 1 0 1 0 0-2h-1.062a7.96 7.96 0 0 0-1.618-3.906l.751-.75a1 1 0 0 0-1.414-1.415l-.751.751A7.96 7.96 0 0 0 13 4.062V3Zm2.477 4.11A5.968 5.968 0 0 0 13 6.082v2.043c.367.094.714.24 1.032.428l1.445-1.445Zm-2.073 3.466.01.01.01.01a2 2 0 1 1-2.85.002l.012-.012.012-.012c.36-.355.856-.574 1.402-.574.547 0 1.043.22 1.404.576Zm2.042-.608 1.445-1.444A5.967 5.967 0 0 1 17.917 11h-2.043a3.977 3.977 0 0 0-.428-1.032Zm-6.922 6.923A5.967 5.967 0 0 0 11 17.917v-2.043a3.977 3.977 0 0 1-1.032-.428l-1.444 1.445Zm.03-2.859A3.976 3.976 0 0 1 8.126 13H6.083a5.968 5.968 0 0 0 1.026 2.477l1.445-1.445ZM6.083 11h2.043c.094-.367.24-.714.428-1.032L7.109 8.524A5.968 5.968 0 0 0 6.083 11Zm11.834 2h-2.043c-.095.367-.24.714-.428 1.032l1.445 1.445A5.968 5.968 0 0 0 17.917 13Zm-3.885 2.446a3.977 3.977 0 0 1-1.032.428v2.043a5.967 5.967 0 0 0 2.476-1.026l-1.444-1.445ZM9.968 8.554 8.523 7.109A5.968 5.968 0 0 1 11 6.083v2.043c-.367.094-.714.24-1.032.428Z"/></g></svg>
